**kern	**text
*clefG2	*
*k[]	*
*M4/4	*
*MM148	*
=1	=1
2r	.
8r	.
8eL	き
8d	み
8eJ	わ
=2	=2
16dLL	へ
16d	ん
16e	な
[16dJJ	こ
16dLL]	.
16dJ	え
8cJ	で
8r	.
8eL	き
8d	みょ
8eJ	な
=3	=3
8dL	み
16eL	た
[16dJJ	め
8dL]	.
8cJ	で
8r	.
8cL	と
8d	き
8e'J	に
=4	=4
8dL	き
16dL	も
[16dJJ	ち
16dLL]	.
16eJ	わ
8gJ	る
8gL	い
8f	と
8e	い
8fJ	わ
=5	=5
8.eL	れ
[16dJk	て
16dLL]	.
16dJ	き
8cJ	た
4r	.
8cL	で
8eJ	も
=6	=6
8gL	し
16gL	ん
[16gJJ	ぞ
8gL]	.
8gJ	が
8r	.
8g	う
16gLL	ご
16gJ	い
8eJ	て
=7	=7
8.gL	な
16gJk	い
8aL	か
8gJ	ら
8r	.
8eL	き
8e	ず
8gJ	つ
=8	=8
8fL	く
16fL	こ
[16fJJ	と
8fL]	.
8fJ	わ
8fL	な
8eJ	か
8c'L	あ
16cL	た
[16dJJ	あ
=9	=9
2d]	.
2r	.
=10	=10
16.ccLL	だ
32ccK	い
16cc	い
16ccJJ	ち
16ccLL	い
16ccJ	ん
[8ccJ	しょ
8ccL]	.
8bJ	わ
16bLL	ま
16b	い
16b	な
[16ccJJ	あ
=11	=11
8.cc]	.
32r	.
32cc	す
4r	.
2r	.
=12	=12
8ccL	へ
16ccL	ん
[16ccJJ	か
16ccLL]	.
16ccJ	し
8ccJ	て
8r	.
8b	た
16bLL	ば
16b	い
16b	あ
[16eeJJ	あ
=13	=13
8.ee]	.
32r	.
32ee	す
4r	.
2r	.
=14	=14
8r	.
8cc	な
8ccL	が
16ccL	れ
[16ccJJ	な
8ccL]	.
8g	が
8cc	れ
8ddJ	て
=15	=15
8eeL	つ
8ee	き
8ff	ひ
8eeJ	わ
8dd	た
4.cc	ち
=16	=16
8r	.
8dd	ま
8ddL	だ
16ddL	こ
[16ddJJ	ん
8ddL]	.
8ccJ	な
8ddL	う
16ddL	た
[16eeJJ	あ
=17	=17
8eeL]	.
8ddJ	お
8r	.
8dd	つ
8dd	く
4cc	う
[8b	て
=18	=18
16bLL]	.
16bJ	い
8bJ	た
[2.cc	あ
=19	=19
1cc]	.
=20	=20
1r	.
=21	=21
1r	.
=22	=22
8gL	こ
8g	ん
8g	に
8gJ	ち
4g	わ
8r	.
8g	は
=23	=23
8gL	じ
8gJ	め
8.aL	ま
16aJk	し
4g	て
4r	.
=24	=24
8d	さ
4d	よ
8d	な
4d'	ら
8dL	ま
8eJ	た
=25	=25
8.dL	あ
16dJk	し
4c'	た
8eeL	か
8dd	わ
8ee	ら
8ddJ	ぬ
=26	=26
8ccL	あ
8ddJ	い
4g'	も
8eeL	は
8dd	か
8ee	な
8ddJ	い
=27	=27
8ccL	こ
8ddJ	い
4g'	も
8eeL	き
8dd	み
8ee	か
8ddJ	ら
=28	=28
8ccL	す
8ddJ	れ
4g'	ば
8ccL	た
8g	だ
8cc	の
8ddJ	き
=29	=29
8ddL	ご
8ccJ	お
4ee'	で
8eeL	せ
8dd	え
8ee	ぎ
8ddJ	も
=30	=30
8ccL	あ
8ddJ	く
4g'	も
8eeL	か
8dd	え
8ee	ら
8ddJ	ぬ
=31	=31
8ccL	ひ
8ddJ	び
4g'	も
8eeL	き
8dd	み
8ee	の
8ddJ	ま
=32	=32
8ggL	え
8ggJ	で
4gg'	わ
8aaL	ど
8gg	お
8ee	で
8ggJ	も
=33	=33
8eeL	よ
8ddJ	く
4cc	て
8r	.
4cc	ず
[8ff	と
=34	=34
16ffKL]	.
[8.ggJ	お
8gg]	.
8r	.
8r	.
4cc	ず
[8ff	と
=35	=35
16ffKL]	.
[8.ggJ	お
8gg]	.
8r	.
8r	.
8ddL	き
8dd	み
8eeJ	が
=36	=36
8.ffL	い
16ffJk	き
8eeL	て
[8ddJ	な
16ddLL]	.
16ddJ	く
8ddJ	て
8eeL	よ
[8ddJ	か
=37	=37
8ddL]	.
8ccJ	あ
4cc	た
8r	.
4cc	ず
[8ff	と
=38	=38
16ffKL]	.
[8.ggJ	お
8gg]	.
8r	.
8r	.
4cc	ず
8aa	と
=39	=39
2gg	お
8r	.
8ddL	き
8dd	み
8eeJ	が
=40	=40
8.ffL	い
16ffJk	き
8eeL	て
[8ddJ	な
16ddLL]	.
16ddJ	く
8ddJ	て
8eeL	よ
[8ddJ	か
=41	=41
8ddL]	.
8ccJ	あ
4cc	た
4r	.
4dd	きょ
=42	=42
[1cc	も
=43	=43
1cc]	.
=44	=44
1r	.
=45	=45
1r	.
=46	=46
1r	.
=47	=47
1r	.
=48	=48
1r	.
=49	=49
2r	.
8r	.
8eL	き
8d	み
8eJ	わ
=50	=50
16dLL	へ
16d	ん
16e	な
[16dJJ	こ
16dLL]	.
16dJ	え
8cJ	で
8r	.
8eL	き
8d	みょ
8eJ	な
=51	=51
8dL	み
16eL	た
[16dJJ	め
8dL]	.
8cJ	で
8r	.
8cL	と
8d	き
8e'J	に
=52	=52
8dL	す
16dL	ば
[16dJJ	ら
16dLL]	.
16eJ	し
[8gJ	い
16g]	.
16r	.
8f	と
8eL	も
8fJ	て
=53	=53
8eL	は
16dL	や
[16dJJ	さ
16dLL]	.
16cJ	れ
8cJ	た
4r	.
8cL	で
8eJ	も
=54	=54
8gL	か
16gL	ん
[16gJJ	じょ
8gL]	.
8gJ	が
8r	.
8gL	わ
8g	か
8eJ	ら
=55	=55
8gL	な
8g	い
8a	か
8gJ	ら
8r	.
8eL	よ
8e	ろ
8gJ	こ
=56	=56
8aL	び
8a	か
8a	た
8aJ	も
8r	.
8aL	て
8a	の
8aJ	ぬ
=57	=57
8bL	く
8b	も
8b	り
8b'J	も
8bL	し
8b	ら
8ee	な
8ddJ	か
=58	=58
8r	.
4.cc	た
2r	.
=59	=59
2r	.
8bL	し
8b	ら
8ee	な
8ddJ	か
=60	=60
8r	.
4.cc	た
2r	.
=61	=61
4r	.
8r	.
8cc	は
8ccL	ず
8dd	な
8cc	の
8ccJ	に
=62	=62
8r	.
8cc	め
8ccL	ぐ
16ccL	り
[16ccJJ	め
8ccL]	.
8g	ぐ
8cc'	う
8ddJ	て
=63	=63
8eeL	た
8ee	ど
8ff	り
8eeJ	つ
8dd	い
4.cc'	た
=64	=64
8r	.
4dd	そ
[8dd	ぞ
8ddL]	.
8ccJ	も
8ddL	し
16ddL	て
[16eeJJ	え
=65	=65
8eeL]	.
8dd	い
8ee	な
8ddJ	か
8r	.
8ccL	た
8dd	み
[8ccJ	ら
=66	=66
1cc]	.
=67	=67
4cc'	い
4r	.
2r	.
=68	=68
1r	.
=69	=69
1r	.
=70	=70
8gL	ひ
8g	さ
8g	し
8gJ	ぶ
4g	り
8r	.
8g	ご
=71	=71
8gL	め
8g	ん
8g	な
8aJ	さ
2g'	い
=72	=72
8dL	お
8d	め
8d	で
[8dJ	と
8d]	.
8r	.
8dL	お
8eJ	げ
=73	=73
8dL	ん
8cJ	き
4c'	で
8eeL	た
8dd	の
8ee	し
8ddJ	い
=74	=74
8ccL	よ
8ddJ	る
4g'	も
8eeL	む
8dd	な
8ee	し
8ddJ	い
=75	=75
8ccL	あ
8ddJ	さ
4g'	も
8eeL	き
8dd	み
8ee	か
8ddJ	ら
=76	=76
8ccL	す
8ddJ	れ
4g'	ば
8ccL	た
8g	だ
8cc	の
8ddJ	き
=77	=77
8ddL	ろ
8ccJ	く
4ee'	で
8eeL	や
8dd	ぶ
8ee	れ
8ddJ	た
=78	=78
8ccL	ゆ
8ddJ	め
4g'	も
8eeL	こ
8dd	こ
8ee	ろ
8ddJ	の
=79	=79
8ccL	き
8ddJ	ず
4g'	も
8eeL	け
8dd	し
8ee	き
8ddJ	の
=80	=80
4gg	よ
4gg'	に
8aaL	た
8gg	だ
8ee	す
8ggJ	り
=81	=81
8eeL	ぬ
8ddJ	け
4cc	て
8r	.
4cc	ず
[8ff	と
=82	=82
16ffKL]	.
[8.ggJ	お
8gg]	.
8r	.
8r	.
4cc	ず
[8ff	と
=83	=83
16ffKL]	.
[8.ggJ	お
8gg]	.
8r	.
8r	.
8ddL	き
8dd	み
8eeJ	が
=84	=84
8.ffL	い
16ffJk	き
8eeL	て
[8ddJ	な
16ddLL]	.
16ddJ	く
8ddJ	て
8eeL	よ
[8ddJ	か
=85	=85
8ddL]	.
8ccJ	あ
4cc	た
8r	.
4cc	ず
[8ff	と
=86	=86
16ffKL]	.
[8.ggJ	お
8gg]	.
8r	.
8r	.
4cc	ず
8aa	と
=87	=87
2gg	お
8r	.
8ddL	き
8dd	み
8eeJ	が
=88	=88
8.ffL	い
16ffJk	き
8eeL	て
[8ddJ	な
16ddLL]	.
16ddJ	く
8ddJ	て
8eeL	よ
[8ddJ	か
=89	=89
8ddL]	.
8ccJ	あ
4cc	た
4r	.
4dd	きょ
=90	=90
[1cc	も
=91	=91
2cc]	.
2r	.
=92	=92
1r	.
=93	=93
1r	.
=94	=94
1r	.
=95	=95
1r	.
=96	=96
1r	.
=97	=97
2r	.
8eeL	か
8dd	わ
8ee	ら
8ddJ	ぬ
=98	=98
8ccL	あ
8ddJ	い
4g'	も
8eeL	は
8dd	か
8ee	な
8ddJ	い
=99	=99
8ccL	こ
8ddJ	い
4g'	も
8eeL	き
8dd	み
8ee	か
8ddJ	ら
=100	=100
8ccL	す
8ddJ	れ
4g'	ば
8ccL	た
8g	だ
8cc	の
8ddJ	き
=101	=101
8ddL	ご
8ccJ	お
4ee'	で
8eeL	せ
8dd	え
8ee	ぎ
8ddJ	も
=102	=102
8ccL	あ
8ddJ	く
4g'	も
8eeL	か
8dd	え
8ee	ら
8ddJ	ぬ
=103	=103
8ccL	ひ
8ddJ	び
4g'	も
8eeL	き
8dd	み
8ee	の
8ddJ	ま
=104	=104
8ggL	え
8ggJ	で
4gg'	わ
8aaL	ど
8gg	お
8ee	で
8ggJ	も
=105	=105
8eeL	よ
8ddJ	く
4cc'	て
8ffL	こ
8ee-X	こ
8ff	に
8ee-J	い
=106	=106
8cc#XL	る
8ee-XJ	こ
4g#X'	と
8ffL	い
8ee-	な
8ff	く
8ee-J	な
=107	=107
8cc#XL	る
8ee-XJ	こ
4g#X'	と
8ffL	き
8ee-	み
8ff	か
8ee-J	ら
=108	=108
8cc#XL	す
8ee-XJ	れ
4g#X'	ば
8cc#L	ふ
8g#	し
8cc#	ぎ
8ee-J	じゃ
=109	=109
8ee-XL	な
8cc#XJ	く
4ff'	て
8ffL	こ
8ee-	の
8ff	よ
8ee-J	の
=110	=110
8cc#XL	は
8ee-XJ	て
4g#X'	も
8ffL	い
8ee-	の
8ff	ち
8ee-J	の
=111	=111
8cc#XL	な
8ee-XJ	ぞ
4g#X'	も
8ffL	き
8ee-	み
8ff	の
8ee-J	ま
=112	=112
8gg#XL	え
8gg#J	で
4gg#'	わ
8bb-XL	ど
8gg#	お
8ff	で
8gg#J	も
=113	=113
8.ffL	よ
[16ee-XJk	く
8ee-L]	.
8cc#XJ	て
8r	.
4cc#	ず
[8ff#X	と
=114	=114
16ff#KL]	.
[8.gg#XJ	お
8gg#]	.
8r	.
8r	.
4cc#X	ず
[8ff#X	と
=115	=115
16ff#KL]	.
[8.gg#XJ	お
8gg#]	.
8r	.
8r	.
8ee-XL	き
8ee-	み
8ffnJ	が
=116	=116
8.ff#XL	い
16ff#Jk	き
8ffnL	て
[8ee-XJ	な
16ee-LL]	.
16ee-J	く
8ee-J	て
8ffL	よ
[8ee-J	か
=117	=117
8ee-L]	.
8cc#XJ	あ
4cc#	た
8r	.
4cc#	ず
[8ff#X	と
=118	=118
16ff#KL]	.
[8.gg#XJ	お
8gg#]	.
8r	.
8r	.
4cc#X	ず
8bb-X	と
=119	=119
2gg#X	お
8r	.
8ee-XL	き
8ee-	み
8ffJ	が
=120	=120
8.ff#XL	い
16ff#Jk	き
8ffnL	て
[8ee-XJ	な
16ee-LL]	.
16ee-J	く
8ee-J	て
8ffL	よ
[8ee-J	か
=121	=121
8ee-L]	.
8cc#XJ	あ
2cc#'	た
8r	.
8ff	く
=122	=122
16ffKL	だ
[8.gg#XJ	あ
8gg#L]	.
8ffJ	ら
8.gg#L	な
16gg#Jk	い
8r	.
8ff	り
=123	=123
16ffKL	そ
[8.gg#XJ	お
8gg#L]	.
8ffJ	じゃ
8.gg#L	な
16gg#Jk	い
8r	.
8ff	ひ
=124	=124
16ffKL	に
[8.gg#XJ	い
8gg#L]	.
8ffJ	ち
16ffKL	じょ
[8.bb-XJ	お
8bb-L]	.
8ffJ	の
=125	=125
4.ee-X	ご
8ff	み
4.ee-	だ
8ff	め
=126	=126
4cc#X	で
8r	.
8cc#	ぼ
12cc#	ん
[6ff	ん
8ffL]	.
8ee-XJ	や
=127	=127
4cc#X	り
8r	.
8cc#	き
8.ffL	み
[16ee-XJk	わ
8ee-L]	.
8cc#J	う
=128	=128
16cc#XKL	た
[8.ffJ	あ
16ff]	.
16r	.
8gg#X	て
[2gg#	て
=129	=129
2.gg#]	.
8r	.
8ff	み
=130	=130
16ffKL	ら
8.gg#XJ	あ
8gg#L	い
8ffJ	が
16ffKL	た
[8.gg#J	あ
8gg#L]	.
8ffJ	の
=131	=131
16ffKL	し
[8.gg#XJ	い
8gg#L]	.
8ffJ	か
16ffKL	わ
[8.gg#J	あ
8gg#L]	.
8ffJ	か
=132	=132
16ffKL	ら
[8.gg#XJ	あ
8gg#L]	.
8ffJ	な
16ffKL	い
[8.bb-XJ	い
8bb-L]	.
8ffJ	け
=133	=133
8ee-XL	れ
8cc#XJ	ど
8r	.
8ff	も
4.ee-	お
8ff	す
=134	=134
4.cc#X	こ
8cc#	し
16cc#KL	こ
[8.ffJ	お
8ffL]	.
8ee-XJ	こ
=135	=135
4cc#X	に
8r	.
8ccn	い
4.cc	さ
8cc#X	せ
=136	=136
[1cc#X	て
=137	=137
1cc#_	.
=138	=138
8cc#]	.
8r	.
4r	.
2r	.
==	==
*-	*-
